X:1
T:Lakes of Col Fin
M:3/4
L:1/4
K:D
 D| F A B| A G F| E D D| D2 A| d d c| B A F| G G B| A2 A/2A/2| d d d/2A/2|\
 A F F/2F/2| F G B| A2 A| G F F| G C E| E D D| D2||
